X:1
T:Ch'io non ferita
T:Ch'io non ferita
T:Piero Benedetti
T:Source : Musische di P.Benedetti---Libro secondo---Venetia---R.Amadino---1613 Editor : André Vierendeels (29/05/15).
T:Notes : Original clefs : C1, F4 Figures in BC are notated in original print Composer called "Pietro" in original print 
C:Piero Benedetti
%%score 1 2
L:1/8
Q:1/4=120
M:4/4
K:C
V:1 treble nm="Soprano" snm="S"
V:2 bass nm="BC" snm="BC"
V:1
 z2 dd d2 d^c | d3 d A2 B/G/A/B/ | c2 c2 z c c2- | c_BBB B2 A/B/c | G3 A F2 F2 | z2 z A ABcc | %6
w: Ch'io non fe- ri- ta|per voi tor- men- * * *|t'u guai, ch'il cor|_ non mi con- fir- mi _ a-|ven ve- le- no|ch'io non ar- do- r'i|
 c_BBA A2 G2 | z2 GG G2 GG | G2- A3 FFF | F2 D2 z4 | z ddd d3 ^c | d3 d A2 B/G/A/B/ | %12
w: vo- stri dol- ci ra- i|ch'io non sai di de-|sir _ e d'A- mor|pie- no,|ch'in que- ste brac- ci'A-|mor vi strin- ga _ _ _|
 c2 c2 z c c2- | c_BBB B2 A/B/c | G3 A F2 F2 | z2 z A Bccc | c_BBA A2 G2 | z2 GG G2 GG | %18
w: ma- i, che mai|_ v'hab- bi'a go- der _ _ den-|tr'al mio se- no,|que- st'è pro- pri'un cer-|car, quan- d'ar- d'il Cie- lo,|su l'A- re- ne del|
 G2 A3 FFF |"^(""^)" PF2 !fermata!D2 z4 |] %20
w: mar _ le bri- n'ei|gie- lo.|
V:2
"^-natural" D,8 | D,8 | C,8 |"^4" C,6 C,2 |"^4    3" C,2 C,2 F,,4 | F,6 E,2 | D,4 C,4 | C,8 | %8
"^b" C,4 G,,4 |"^#""^#" A,,2 D,2 z4 |"^-natural" D,8 | D,8 | C,8 |"^4" C,6 C,2 | %14
"^4     3" C,2 C,2 F,,4 | F,6 E,2 | D,4 C,4 | C,8 |"^b" C,4 G,,4 |"^#""^#" A,,2 !fermata!D,2 z4 |] %20

